!!!!SEGMENT: pl-cz--iii-453--001-002_maader-ludwik--rorate-caeli-mittit-ad-virginem.krn
!!!cenid: 17xx:981
!!!COM: Maader, Ludwik
!!!COM-rismid: pe30020328
!!!CDT: <1794->1798
!!!CNT:
!!!OPR: Rorate caeli
!!!OTL: Mittit ad virginem
!!!OMV: 002
!!!PDT: 1784
!!!AGN: Sacred
!!!SMS-siglum: PL-CZ
!!!SMS-shelfmark: III-453
!!!SMS-shelfwork: 001-002 M
!!!SMS-variant:
!!!SMS-altvar:
!!!NIFC-rismid: 300000768
!!!URL-scan: http://repozytorium.nifc.pl/skany/pl-cz-nut--iii-453
!!!ONB-nifc: UWAGA: części Rorate caeli: Rorate, Mittit ad virginem, Zdrowaś bądź Maria, Super bientium, Łaskiś pełna pańskiej, Qui nobis tribuat, Amen
!!!AIN: 1 alto 4 empty 1 oboe 1 organ 1 tenor 1 timpa 2 violn 1 vox
!!!key: G
**kern	**fba	**kern	**kern	**kern	**text	**kern	**text	**kern	**text	**kern	**text	**kern	**kern	**dynam	**kern	**kern	**kern
*part12	*part12	*part11	*part10	*part9	*part9	*part8	*part8	*part7	*part7	*part6	*part6	*part5	*part4	*part4	*part3	*part2	*part1
*staff12	*staff12	*staff11	*staff10	*staff9	*staff9	*staff8	*staff8	*staff7	*staff7	*staff6	*staff6	*staff5	*staff4	*	*staff3	*staff2	*staff1
*Iorgan	*	*Ivioln	*Ivioln	*Iempty	*	*Itenor	*	*Ialto	*	*Ivox	*	*Itimpa	*Iempty	*	*Iempty	*Ioboe	*Iempty
*I"Organo.	*	*I"Violino Secondo	*I"Violino Primo.	*I"Baſso.	*	*I"Tenore	*	*I"Alto.	*	*I"Canto.	*	*I"Tympano in D.A.	*I"Clarino IIdo ex D#.	*	*I"Clarino Imo. ex D#.	*I"Oboe Secondo	*I"Oboe Imo.
*I'org	*	*I'vl 2	*I'vl 1	*I'B	*	*I'T	*	*I'A	*	*I'S	*	*I'timp	*I'cor 2 in E♭	*	*I'cor 1 in E♭	*I'ob 2	*I'ob 1
*ICklav	*	*ICstr	*ICstr	*ICvox	*	*ICvox	*	*ICvox	*	*ICvox	*	*ICidio	*ICbras	*	*ICbras	*ICww	*ICww
*IG	*	*	*	*IGcoro	*	*IGcoro	*	*IGcoro	*	*IGcoro	*	*	*	*	*	*	*
*clefF4	*	*clefG2	*clefG2	*clefF4	*	*clefC4	*	*clefC3	*	*clefC1	*	*clefF4	*clefG2	*	*clefG2	*clefG2	*clefG2
*	*	*	*	*	*	*	*	*	*	*	*	*	*ITrd3c5	*	*ITrd3c5	*	*
*k[f#]	*	*k[f#]	*k[f#]	*k[f#cn]	*	*k[f#]	*	*k[f#cn]	*	*k[f#cn]	*	*k[f#]	*k[f#]	*	*k[f#]	*k[f#cn]	*k[f#]
*G:	*	*G:	*G:	*G:	*	*G:	*	*G:	*	*G:	*	*G:	*G:	*	*G:	*G:	*G:
*M2/4	*	*M2/4	*M2/4	*M2/4	*	*M2/4	*	*M2/4	*	*M2/4	*	*M2/4	*M2/4	*	*M2/4	*M2/4	*M2/4
=1	=1	=1	=1	=1	=1	=1	=1	=1	=1	=1	=1	=1	=1	=1	=1	=1	=1
!!LO:TX:t=P:problem:8:cauda\right
!	!	!	!	!	!	!	!	!	!	!	!	!	!LO:TX:a:t=allo moderato.	!	!LO:TX:a:t=allo moderato.	!	!
!LO:TX:a:t=allo moderato.	!	!LO:TX:a:t=allo moderato.	!LO:TX:a:t=allo moderato	!LO:TX:a:t=allo moderato.	!	!LO:TX:a:t=allo moder&colon;	!	!LO:TX:a:t=allo moderato.	!	!LO:TX:a:t=allo moderato	!	!LO:TX:a:t=Mittit ad Virginum Tacet.	! Cornu ex G.	!	! Cornu ex G.	!LO:TX:a:t=allo moderato	!LO:TX:a:t=allo moderato
4G\	.	8gg\L	8bb\L	4G\	Mit-	4G/	Mit-	4b\	Mit-	4dd\	Mit-	2ryy	(8g\L	f	(8b\L	(8g/L	8b\L
.	.	8bb\	8ddd\	.	.	.	.	.	.	.	.	.	8b\J)	.	8dd\J)	8b/)	8dd\J
4r	.	8bb\	8ddd\	8G\	-tit	8B\	-tit	8b\	-tit	8dd\	-tit	.	8b'\L	.	8dd'\L	8b|/	8dd\L
.	.	8aa\J	8ccc\J	8G\	ad	8c\	ad	8a\	ad	8cc\	ad	.	8a'\J	.	8cc'\J	8a|/J	8cc\J
=2	=2	=2	=2	=2	=2	=2	=2	=2	=2	=2	=2	=2	=2	=2	=2	=2	=2
4G\	.	8aa\L	8ccc\L	8G\	Vir-	8d\	Vir-	8a\	Vir-	8cc\	Vir-	2ryy	(8a\L	.	(8cc\L	8a|/L	8cc\L
.	.	8gg\J	8bb\J	8G\	-gi-	8d\	-gi-	8g\	-gi-	8b\	-gi-	.	8g\J)	.	8b\J)	8g|/J	8b\J
4r	.	4gg\	4bb\	4G\	-nem	4d\	-nem	4g\	-nem	4b\	-nem	.	4g\	.	4b\	4g/	4b\
=3	=3	=3	=3	=3	=3	=3	=3	=3	=3	=3	=3	=3	=3	=3	=3	=3	=3
!	!	!	!	!	!	!	!	!	!	!	!	!	!LO:TX:t=P:problem=mixed beam	!	!	!	!
4d\	.	8ff#\L	8aa\L	4d\	n(on)	4F#/	n(on)	4a\	non	4cc\	n(on)	2ryy	8d/L	.	(8a\L	(8f#/L	8a\L
.	.	8aa\J	8ccc\J	.	.	.	.	.	.	.	.	.	8a\	.	8cc\J)	8a/)	8cc\J
4r	.	8aa\L	8ccc\L	8d\	quem	8F#/	quem	8a\	quem	8cc\	quem	.	8a\	.	8cc|\L	8a|/	8cc\
.	.	8gg\J	8bb\J	8d\	vis	8D/	vis	8g\	vis	8b\	vis	.	8g\J	.	8b|\J	8g|/J	8b\J
=4	=4	=4	=4	=4	=4	=4	=4	=4	=4	=4	=4	=4	=4	=4	=4	=4	=4
4d\	.	8gg\L	8bb\L	8d\	An-	8D/	An-	8g\	An-	8b\	An-	2ryy	8g\L	.	(8b\L	8g|/L	8b\L
.	.	8ff#\J	8aa\J	8D/	-ge-	8D/	-ge-	8f#\	-ge-	8a\	-ge-	.	8d\J	.	8a\J)	8f#|/J	8a\J
4r	.	4ff#\	4aa\	4D/	-lum	4D/	-lum	4f#\	-lum	4a\	-lum	.	4d\	.	4a|\	4f#/	4a\
!	!	!	!	!	!	!	!	!	!	!	!	!	!	!	!	!LO:LB:g=original	!
=5	=5	=5	=5	=5	=5	=5	=5	=5	=5	=5	=5	=5	=5	=5	=5	=5	=5
*	*	*	*	*	*	*	*	*	*	*	*	*	*2\right	*	*2\right	*	*
8G\L	.	8gg\L	8bb|\L	2r	.	2r	.	2r	.	2r	.	2ryy	2g\	.	2b\	8g/L	8b\L
8D\	.	8gg\J	8bb|\J	.	.	.	.	.	.	.	.	.	.	.	.	8g/J	8b\J
8G\	.	8gg\L	8bb|\L	.	.	.	.	.	.	.	.	.	.	.	.	8g/L	8b\L
8D\J	.	16ff#\L	(16aa\L	.	.	.	.	.	.	.	.	.	.	.	.	16f#/L	16a\L
.	.	16gg\JJ	16bb\JJ)	.	.	.	.	.	.	.	.	.	.	.	.	16g/JJ	16b\JJ
=6	=6	=6	=6	=6	=6	=6	=6	=6	=6	=6	=6	=6	=6	=6	=6	=6	=6
8A\L	.	8aa\L	8ccc|\L	2r	.	2r	.	2r	.	2r	.	2ryy	2a\	.	2cc\	8a/L	8cc\
8D\	.	8aa\J	8ccc|\J	.	.	.	.	.	.	.	.	.	.	.	.	8a/J	8cc\J
8A\	.	4aa\	4ccc|\	.	.	.	.	.	.	.	.	.	.	.	.	4a/	4cc\
8D\J	.	.	.	.	.	.	.	.	.	.	.	.	.	.	.	.	.
=7	=7	=7	=7	=7	=7	=7	=7	=7	=7	=7	=7	=7	=7	=7	=7	=7	=7
8G\L	.	8gg\L	8bb|\L	2r	.	2r	.	2r	.	2r	.	2ryy	2g\	.	2b\	8g/L	8b\L
8D\	.	8gg\J	8bb|\J	.	.	.	.	.	.	.	.	.	.	.	.	8g/J	8b\J
8G\	.	8gg\L	8bb|\L	.	.	.	.	.	.	.	.	.	.	.	.	8g/L	8b\L
8D\J	.	16ff#\L	(16aa\L	.	.	.	.	.	.	.	.	.	.	.	.	16f#/L	16a\L
.	.	16gg\JJ	16bb\JJ)	.	.	.	.	.	.	.	.	.	.	.	.	16g/JJ	16b\JJ
!	!	!	!	!	!	!	!	!	!	!	!	!	!	!	!	!	!LO:LB:g=original
=8	=8	=8	=8	=8	=8	=8	=8	=8	=8	=8	=8	=8	=8	=8	=8	=8	=8
8F#\L	.	8ff#\L	8aa|\L	2r	.	2r	.	2r	.	2r	.	2ryy	2d/	.	2a\	8f#/L	8a/L
8D\	.	8ff#\J	8aa|\J	.	.	.	.	.	.	.	.	.	.	.	.	8f#/J	8a/J
8F#\	.	4ff#\	4aa|\	.	.	.	.	.	.	.	.	.	.	.	.	4f#/	4a/
8D\J	.	.	.	.	.	.	.	.	.	.	.	.	.	.	.	.	.
=9	=9	=9	=9	=9	=9	=9	=9	=9	=9	=9	=9	=9	=9	=9	=9	=9	=9
!LO:TX:t=P:problem=mixed beam	!	!	!	!	!	!	!	!	!	!	!	!	!	!	!	!	!
8B\L	.	8bb\L	8gg\L	2r	.	2r	.	2r	.	2r	.	2ryy	2g\	.	2b\	8b\L	8g/L
8D/	.	8bb\J	8gg\J	.	.	.	.	.	.	.	.	.	.	.	.	8b\J	8g/J
8B\	.	8bb\L	8gg\L	.	.	.	.	.	.	.	.	.	.	.	.	8b\L	8g/L
8D/J	.	16aa\L	16ff#\L	.	.	.	.	.	.	.	.	.	.	.	.	16a\L	16f#/L
.	.	16bb\JJ	16gg\JJ	.	.	.	.	.	.	.	.	.	.	.	.	16b\JJ	16g/JJ
=10	=10	=10	=10	=10	=10	=10	=10	=10	=10	=10	=10	=10	=10	=10	=10	=10	=10
!LO:TX:t=P:problem=mixed beam	!	!	!	!	!	!	!	!	!	!	!	!	!	!	!	!	!
8c\L	.	8ccc\L	8aa\L	2r	.	2r	.	2r	.	2r	.	2ryy	2a\	.	2cc\	8cc\L	8a/L
8D/	.	8ccc\J	8aa\J	.	.	.	.	.	.	.	.	.	.	.	.	8cc\J	8a/J
8c\	.	4ccc\	4aa\	.	.	.	.	.	.	.	.	.	.	.	.	4cc\	4a/
8D/J	.	.	.	.	.	.	.	.	.	.	.	.	.	.	.	.	.
!LO:LB:g=original	!	!	!LO:LB:g=original	!	!	!	!	!	!	!	!	!	!	!	!	!	!
=11	=11	=11	=11	=11	=11	=11	=11	=11	=11	=11	=11	=11	=11	=11	=11	=11	=11
!LO:TX:t=P:problem=mixed beam	!	!	!	!	!	!	!	!	!	!	!	!	!	!	!	!	!
8B\L	.	8bb\L	8gg\L	2r	.	2r	.	2r	.	2r	.	2ryy	2g\	.	2b\	8b\L	8g/L
8D/	.	8bb\J	8gg\J	.	.	.	.	.	.	.	.	.	.	.	.	8b\J	8g/J
8B\	.	8bb\L	8gg\L	.	.	.	.	.	.	.	.	.	.	.	.	8b\L	8g/L
8D/J	.	16aa\L	16ff#\L	.	.	.	.	.	.	.	.	.	.	.	.	16a\L	16f#/L
.	.	16bb\JJ	16gg\JJ	.	.	.	.	.	.	.	.	.	.	.	.	16b\JJ	16g/JJ
!	!	!	!LO:LB:g=original	!	!	!	!	!	!	!	!	!	!	!	!	!	!
=12	=12	=12	=12	=12	=12	=12	=12	=12	=12	=12	=12	=12	=12	=12	=12	=12	=12
8A\L	.	8aa\L	8ff#\L	2r	.	2r	.	2r	.	2r	.	2ryy	2d/	.	2a\	8a\L	8f#/L
8D\	.	8aa\J	8ff#\J	.	.	.	.	.	.	.	.	.	.	.	.	8a\J	8f#/J
8A\	.	4aa\	4ff#\	.	.	.	.	.	.	.	.	.	.	.	.	4a\	4f#/
8D\J	.	.	.	.	.	.	.	.	.	.	.	.	.	.	.	.	.
!	!	!	!	!	!	!LO:LB:g=original	!	!	!	!	!	!	!	!LO:LB:g=original	!	!LO:LB:g=original	!
=13	=13	=13	=13	=13	=13	=13	=13	=13	=13	=13	=13	=13	=13	=13	=13	=13	=13
4.D\	.	8ff#\L	8aa\L	4D\	Sed	4d\	Sed	4f#\	Sed	4a\	Sed	2ryy	2r	.	2r	8f#/L	8a\L
.	.	8ff#\	8aa\	.	.	.	.	.	.	.	.	.	.	.	.	8f#/	8a\
.	.	8gg\	8bb\	8D\	for-	8d\	for-	8g\	for-	8b\	for-	.	.	.	.	8g/	8b\
8F#\	.	8aa\J	8ccc\J	8F#\	-ti-	8d\	-ti-	8a\	-ti-	8cc\	-ti-	.	.	.	.	8a/J	8cc\J
!	!	!	!	!LO:LB:g=original	!	!	!	!	!	!LO:LB:g=original	!	!	!	!	!	!	!
=14	=14	=14	=14	=14	=14	=14	=14	=14	=14	=14	=14	=14	=14	=14	=14	=14	=14
4G\	9:8 4:3	8aa\L	8ccc\L	8G\	-tu-	8d\	-tu-	8a\	-tu-	8cc\	-tu-	2ryy	8a\L	.	8cc\L	8a/L	8cc\L
.	.	8gg\J	8bb\J	8GG/	-di-	8d\	-di-	8g\	-di-	8b\	-di-	.	8g\J	.	8b\J	8g/J	8b\J
4GG/	.	4gg\	4bb\	4GG/	-nem	4d\	-nem	4g\	-nem	4b\	-nem	.	4g\	.	4b\	4g/	4b\
!	!	!	!	!	!	!	!	!LO:LB:g=original	!	!	!	!	!	!	!	!	!
=15	=15	=15	=15	=15	=15	=15	=15	=15	=15	=15	=15	=15	=15	=15	=15	=15	=15
4.E\	.	8gg#X\L	8bb\L	4E\	Su-	4e\	Su-	4g#X\	Su-	4b\	Su-	2ryy	2r	.	2r	8g#X/L	8b\L
.	.	8gg#\	8bb\	.	.	.	.	.	.	.	.	.	.	.	.	8g#/	8b\
.	.	8aa\	8ccc#X\	8E\	-um	8e\	-um	8a\	-um	8cc#X\	-um	.	.	.	.	8a/	8cc#X\
8G#X\	.	8bb\J	8ddd\J	8G#X\	Ar-	8e\	Ar-	8b\	Ar-	8dd\	Ar-	.	.	.	.	8b/J	8dd\J
=16	=16	=16	=16	=16	=16	=16	=16	=16	=16	=16	=16	=16	=16	=16	=16	=16	=16
8A\L	5_ 3_	4ee\	8ccc#X\L	8A\	-chan-	8e\	-chan-	8a\	-chan-	8cc#X\	-chan-	2ryy	2r	.	2r	8a/L	4cc#X\
8Gn\	.	.	8aa\J	8Gn\	-ge-	8e\	-ge-	8a\	-ge-	8cc#\	-ge-	.	.	.	.	8e/	.
8F#\	x 6	8ff#\L	8ddd\L	8F#\	-lum	8f#\	-lum	8a\	-lum	8dd\	-lum	.	.	.	.	8f#/J	8dd\L
8G\J	6 5	8ggn\J	8bb\J	8G\	Ar-	8e\	Ar-	8gn\	Ar-	8b\	Ar-	.	.	.	.	8r	8b\J
!	!	!	!	!	!	!	!	!	!	!	!	!	!LO:LB:g=original	!	!	!	!
=17	=17	=17	=17	=17	=17	=17	=17	=17	=17	=17	=17	=17	=17	=17	=17	=17	=17
4A\	8:7 6:5	8ff#\L	8aa\L	4A\	-chan-	8d\L	-chan-	8f#\L	-chan-	8a/L	-chan-	2ryy	4a\	.	4a\	8f#/L	8a/L
.	.	8ee\	8gg\	.	.	8e\J	.	8e\J	.	8g/J	.	.	.	.	.	8e/	8g/
4AA/	6:5 4:#	8dd\	8ff#\	4AA/	-ge-	4A\	-ge-	8d\L	-ge-	8f#/L	-ge-	.	4a\	.	4a\	8d/	8f#/
.	.	8cc#X\J	8ee\J	.	.	.	.	8c#X\J	.	8e/J	.	.	.	.	.	8c#X/J	8e/J
=18	=18	=18	=18	=18	=18	=18	=18	=18	=18	=18	=18	=18	=18	=18	=18	=18	=18
!LO:TX:t=P:problem=mixed beam	!	!	!	!	!	!	!	!	!	!	!	!	!	!	!	!	!
8D/L	.	4dd\	4dd\	4D\	-lum	4A\	-lum	4d\	-lum	4f#/	-lum	2ryy	4d/	.	4a\	4d/	4f#/
8d\	.	.	.	.	.	.	.	.	.	.	.	.	.	.	.	.	.
8D/J	.	4r	8r	4r	.	4r	.	4r	.	4r	.	.	4r	.	4r	4r	4r
8r	.	.	8ddd\	.	.	.	.	.	.	.	.	.	.	.	.	.	.
!	!	!	!	!	!	!LO:LB:g=original	!	!	!	!	!	!	!	!	!	!	!LO:LB:g=original
=19	=19	=19	=19	=19	=19	=19	=19	=19	=19	=19	=19	=19	=19	=19	=19	=19	=19
4r	.	2r	8ddd\L	2r	.	2r	.	2r	.	2r	.	2ryy	2r	.	2r	2r	2r
.	.	.	8bb\	.	.	.	.	.	.	.	.	.	.	.	.	.	.
4G#X\	.	.	8eee\	.	.	.	.	.	.	.	.	.	.	.	.	.	.
.	.	.	8ddd\J	.	.	.	.	.	.	.	.	.	.	.	.	.	.
=20	=20	=20	=20	=20	=20	=20	=20	=20	=20	=20	=20	=20	=20	=20	=20	=20	=20
4A\	.	8ee\L	8cccn\L	2r	.	2r	.	2r	.	2r	.	2ryy	2r	.	2r	2r	2r
.	.	8dd\	8bb\	.	.	.	.	.	.	.	.	.	.	.	.	.	.
4r	.	8ccn\J	8aa\	.	.	.	.	.	.	.	.	.	.	.	.	.	.
.	.	8r	8ccc\J	.	.	.	.	.	.	.	.	.	.	.	.	.	.
=21	=21	=21	=21	=21	=21	=21	=21	=21	=21	=21	=21	=21	=21	=21	=21	=21	=21
4r	.	2r	8ccc\L	2r	.	2r	.	2r	.	2r	.	2ryy	2r	.	2r	2r	2r
.	.	.	8aa\	.	.	.	.	.	.	.	.	.	.	.	.	.	.
4F#\	.	.	8ddd\	.	.	.	.	.	.	.	.	.	.	.	.	.	.
.	.	.	8ccc\J	.	.	.	.	.	.	.	.	.	.	.	.	.	.
=22	=22	=22	=22	=22	=22	=22	=22	=22	=22	=22	=22	=22	=22	=22	=22	=22	=22
4Gn\	.	8dd\L	8bb\L	2r	.	2r	.	2r	.	2r	.	2ryy	2r	.	2r	2r	2r
.	.	8cc\	8aa\	.	.	.	.	.	.	.	.	.	.	.	.	.	.
4r	.	8b\J	8gg\	.	.	.	.	.	.	.	.	.	.	.	.	.	.
.	.	8r	8dd\J	.	.	.	.	.	.	.	.	.	.	.	.	.	.
=23	=23	=23	=23	=23	=23	=23	=23	=23	=23	=23	=23	=23	=23	=23	=23	=23	=23
4G\	.	2r	8gg\L	2r	.	2r	.	2r	.	2r	.	2ryy	2r	.	2r	2r	2r
.	.	.	8bb\	.	.	.	.	.	.	.	.	.	.	.	.	.	.
4F#\	.	.	8aa\	.	.	.	.	.	.	.	.	.	.	.	.	.	.
.	.	.	8ccc\J	.	.	.	.	.	.	.	.	.	.	.	.	.	.
!	!	!	!LO:LB:g=original	!	!	!	!	!	!	!	!	!	!	!	!	!	!
=24	=24	=24	=24	=24	=24	=24	=24	=24	=24	=24	=24	=24	=24	=24	=24	=24	=24
4G\	.	8gg\L	8bb\L	2r	.	2r	.	2r	.	2r	.	2ryy	2r	.	2r	2r	2r
.	.	8bb\	8ddd\	.	.	.	.	.	.	.	.	.	.	.	.	.	.
4A\	.	8aa\	8ccc\	.	.	.	.	.	.	.	.	.	.	.	.	.	.
.	.	8ccc\J	8eee\J	.	.	.	.	.	.	.	.	.	.	.	.	.	.
!LO:LB:g=original	!	!	!	!	!	!	!	!	!	!	!	!	!	!	!	!	!
=25	=25	=25	=25	=25	=25	=25	=25	=25	=25	=25	=25	=25	=25	=25	=25	=25	=25
4B\	.	8ccc\L	8eee\L	2r	.	2r	.	2r	.	2r	.	2ryy	2r	.	2r	2r	2r
.	.	8bb\	8ddd\	.	.	.	.	.	.	.	.	.	.	.	.	.	.
8c\L	.	8aa\	8ccc\	.	.	.	.	.	.	.	.	.	.	.	.	.	.
8c#X\J	.	8gg\J	8bb\J	.	.	.	.	.	.	.	.	.	.	.	.	.	.
!	!	!	!LO:LB:g=original	!	!	!	!	!	!	!	!	!	!	!	!	!	!
=26	=26	=26	=26	=26	=26	=26	=26	=26	=26	=26	=26	=26	=26	=26	=26	=26	=26
!	!	!LO:TX:t=P:2/:problem	!	!	!	!	!	!	!	!	!	!	!	!	!	!LO:TX:b:t=VS&colon;	!
.	.	8qqgg/	8qqbb/	.	.	.	.	.	.	.	.	.	.	.	.	.	.
*	*	*2\right	*2\right	*	*	*	*	*	*	*	*	*	*	*	*	*	*
4d\	.	2ff#\	2aa\	2r	.	2r	.	2r	.	2r	.	2ryy	2r	.	2r	2r	2r
4D\	.	.	.	.	.	.	.	.	.	.	.	.	.	.	.	.	.
!	!	!	!	!	!	!	!	!	!	!	!	!	!	!	!	!LO:PB:g=original	!
=27	=27	=27	=27	=27	=27	=27	=27	=27	=27	=27	=27	=27	=27	=27	=27	=27	=27
4G\	.	8gg\L	8bb\L	4G\	Sed	4G/	Sed	4b\	Sed	4dd\	Sed	2ryy	(8g\L	.	(8b\L	8g/L	8b\L
.	.	8bb\	8ddd\	.	.	.	.	.	.	.	.	.	8b\J)	.	8dd\J)	8b/	8dd\
4r	.	8bb\	8ddd\	8G\	for-	8B\	for-	8b\	for-	8dd\	for-	.	8b'\L	.	8dd'\L	8b/	8dd\
.	.	8aa\J	8ccc\J	8G\	-ti-	8c\	-ti-	8a\	-ti-	8ccn\	-ti-	.	8a'\J	.	8cc'\J	8a/J	8cc\J
!	!	!	!	!LO:LB:g=original	!	!	!	!	!	!LO:LB:g=original	!	!	!	!	!	!	!
=28	=28	=28	=28	=28	=28	=28	=28	=28	=28	=28	=28	=28	=28	=28	=28	=28	=28
4G\	.	8aa\L	8ccc\L	8G\	-tu-	8d\	-tu-	8a\	-tu-	8cc\	-tu-	2ryy	(8a\L	.	(8cc\L	8a/L	8cc\L
.	.	8gg\J	8bb\J	8G\	-di-	8d\	-di-	8g\	-di-	8b\	-di-	.	8g\J)	.	8b\J)	8g/J	8b\J
4r	.	4gg\	4bb\	4G\	-nem	4d\	-nem	4g\	-nem	4b\	-nem	.	4g|\	.	4b|\	4g/	4b\
=29	=29	=29	=29	=29	=29	=29	=29	=29	=29	=29	=29	=29	=29	=29	=29	=29	=29
4d\	.	8ff#\L	8aa\L	4d\	Su-	4F#/	Su-	4a\	Su-	4cc\	Su-	2ryy	8d\L	.	(8a\L	8f#/L	8a\L
.	.	8aa\J	8ccc\	.	.	.	.	.	.	.	.	.	8a\	.	8cc\J)	8a/	8cc\J
4r	.	8aa\L	8ccc\	8d\	-um	8F#/	-um	8a\	-um	8cc\	-um	.	8a\	.	8cc'\L	8a/	8cc\L
.	.	8gg\J	8bb\J	8d\	Ar-	8D/	Ar-	8g\	Ar-	8b\	Ar-	.	8g\J	.	8b'\J	8g/J	8b\J
!	!	!	!	!	!	!	!	!LO:LB:g=original	!	!	!	!	!	!	!	!	!
=30	=30	=30	=30	=30	=30	=30	=30	=30	=30	=30	=30	=30	=30	=30	=30	=30	=30
4d\	.	8gg\L	8bb\L	8d\	-chan-	8D/	-chan-	8g\	-chan-	8b\	-chan-	2ryy	8g\L	.	(8b\L	8g/L	8b\L
.	.	8ff#\J	8aa\J	8D/	-ge-	8D/	-ge-	8f#\	-ge-	8a\	-ge-	.	8d\J	.	8a\J)	8f#/J	8a\J
4r	.	4ff#\	4aa\	4D/	-lum	4D/	-lum	4f#\	-lum	4a\	-lum	.	4d\	.	4a|\	4f#/	4a\
=31	=31	=31	=31	=31	=31	=31	=31	=31	=31	=31	=31	=31	=31	=31	=31	=31	=31
!	!	!	!	!	!	!	!	!	!	!LO:TX:a:t=7	!	!	!	!	!	!	!
!	!	!	!	!	!	!	!	!	!	!LO:TX:b:t=7	!	!	!	!	!	!	!
8G\L	.	8gg\L	8bb\L	2r	.	2r	.	2r	.	2r	.	2ryy	2g\	.	2b\	8g/L	8b\L
8D\	.	8gg\J	8bb\J	.	.	.	.	.	.	.	.	.	.	.	.	8g/J	8b\J
8G\	.	8gg\L	8bb\L	.	.	.	.	.	.	.	.	.	.	.	.	8g/L	8b\L
8D\J	.	16ff#\L	16aa\L	.	.	.	.	.	.	.	.	.	.	.	.	16f#/L	16a\L
.	.	16gg\JJ	16bb\JJ	.	.	.	.	.	.	.	.	.	.	.	.	16g/JJ	16b\JJ
=32	=32	=32	=32	=32	=32	=32	=32	=32	=32	=32	=32	=32	=32	=32	=32	=32	=32
8A\L	.	8aa\L	8ccc\L	2r	.	2r	.	2r	.	2r	.	2ryy	2a\	.	2cc\	8a/L	8cc\L
8D\	.	8aa\J	8ccc\J	.	.	.	.	.	.	.	.	.	.	.	.	8a/J	8cc\J
8A\	.	4aa\	4ccc\	.	.	.	.	.	.	.	.	.	.	.	.	4a/	4cc\
8D\J	.	.	.	.	.	.	.	.	.	.	.	.	.	.	.	.	.
=33	=33	=33	=33	=33	=33	=33	=33	=33	=33	=33	=33	=33	=33	=33	=33	=33	=33
8G\L	.	8gg\L	8bb\L	2r	.	2r	.	2r	.	2r	.	2ryy	2g\	.	2b\	8g/L	8b\L
8D\	.	8gg\J	8bb\J	.	.	.	.	.	.	.	.	.	.	.	.	8g/J	8b\J
8G\	.	8gg\L	8bb\L	.	.	.	.	.	.	.	.	.	.	.	.	8g/L	8b\L
8D\J	.	16ff#\L	16aa\L	.	.	.	.	.	.	.	.	.	.	.	.	16f#/L	16a\L
.	.	16gg\JJ	16bb\JJ	.	.	.	.	.	.	.	.	.	.	.	.	16g/JJ	16b\JJ
=34	=34	=34	=34	=34	=34	=34	=34	=34	=34	=34	=34	=34	=34	=34	=34	=34	=34
8F#\L	.	8ff#\L	8aa\L	2r	.	2r	.	2r	.	2r	.	2ryy	2d/	.	2a\	8f#/L	8a\L
8D\	.	8ff#\J	8aa\J	.	.	.	.	.	.	.	.	.	.	.	.	8f#/J	8a\J
8F#\	.	4ff#\	4aa\	.	.	.	.	.	.	.	.	.	.	.	.	4f#/	4a\
8D\J	.	.	.	.	.	.	.	.	.	.	.	.	.	.	.	.	.
!	!	!	!	!	!	!	!	!	!	!	!	!	!	!	!LO:LB:g=original	!LO:LB:g=original	!
=35	=35	=35	=35	=35	=35	=35	=35	=35	=35	=35	=35	=35	=35	=35	=35	=35	=35
!LO:TX:t=P:problem=mixed beam	!	!	!	!	!	!	!	!	!	!	!	!	!	!	!	!	!
8B\L	.	8bb\L	8gg\L	2r	.	2r	.	2r	.	2r	.	2ryy	2g\	.	2b\	8b\L	8g/L
8D/	.	8bb\J	8gg\J	.	.	.	.	.	.	.	.	.	.	.	.	8b\J	8g/J
8B\	.	8bb\L	8gg\L	.	.	.	.	.	.	.	.	.	.	.	.	8b\L	8g/L
8D/J	.	16aa\L	16ff#\L	.	.	.	.	.	.	.	.	.	.	.	.	16a\L	16f#/L
.	.	16bb\JJ	16gg\JJ	.	.	.	.	.	.	.	.	.	.	.	.	16b\JJ	16g/JJ
=36	=36	=36	=36	=36	=36	=36	=36	=36	=36	=36	=36	=36	=36	=36	=36	=36	=36
!LO:TX:t=P:problem=mixed beam	!	!	!	!	!	!	!	!	!	!	!	!	!	!	!	!	!
8c\L	.	8ccc\L	8aa\L	2r	.	2r	.	2r	.	2r	.	2ryy	2a\	.	2cc\	8cc\L	8a/L
8D/	.	8ccc\J	8aa\J	.	.	.	.	.	.	.	.	.	.	.	.	8cc\J	8a/J
8c\	.	4ccc\	4aa\	.	.	.	.	.	.	.	.	.	.	.	.	4cc\	4a/
8D/J	.	.	.	.	.	.	.	.	.	.	.	.	.	.	.	.	.
!	!	!	!LO:LB:g=original	!	!	!	!	!	!	!	!	!	!	!	!	!	!LO:LB:g=original
=37	=37	=37	=37	=37	=37	=37	=37	=37	=37	=37	=37	=37	=37	=37	=37	=37	=37
!LO:TX:t=P:problem=mixed beam	!	!	!	!	!	!	!	!	!	!	!	!	!	!	!	!	!
8B\L	.	8bb\L	8gg\L	2r	.	2r	.	2r	.	2r	.	2ryy	2g\	.	2b\	8b\L	8g/L
8D/	.	8bb\J	8gg\J	.	.	.	.	.	.	.	.	.	.	.	.	8b\J	8g/J
8B\	.	8bb\L	8gg\L	.	.	.	.	.	.	.	.	.	.	.	.	8b\L	8g/L
8D/J	.	16aa\L	16ff#\L	.	.	.	.	.	.	.	.	.	.	.	.	16a\L	16f#/L
.	.	16bb\JJ	16gg\JJ	.	.	.	.	.	.	.	.	.	.	.	.	16b\JJ	16g/JJ
=38	=38	=38	=38	=38	=38	=38	=38	=38	=38	=38	=38	=38	=38	=38	=38	=38	=38
!	!	!	!	!	!	!	!	!	!	!	!	!	!	!	!LO:TX:b:t=Solo	!	!
8A\L	.	8aa\L	8ff#\L	4r	.	4r	.	4r	.	4r	.	2ryy	2d/	.	2a\	8a\L	8f#/L
8D\	.	8aa\J	8ff#\J	.	.	.	.	.	.	.	.	.	.	.	.	8a\J	8f#/J
8A\	.	4aa\	4ff#\	8r	.	8r	.	8r	.	8r	.	.	.	.	.	4a\	4f#/
8D\J	.	.	.	8D\	A-	8d\	A-	8f#\	A-	8a\	A-	.	.	.	.	.	.
!	!	!LO:LB:g=original	!	!	!	!	!	!	!	!	!	!	!LO:LB:g=original	!	!	!	!
=39	=39	=39	=39	=39	=39	=39	=39	=39	=39	=39	=39	=39	=39	=39	=39	=39	=39
4.D\	.	8f#/L	8a\L	4.D\	-ma-	4d\	-ma-	4f#\	-ma-	4a\	-ma-	2ryy	2r	.	2r	8f#/L	8a\L
.	.	8f#/	8a\	.	.	.	.	.	.	.	.	.	.	.	.	8f#/	8a\
.	.	8g/	8b\	.	.	4d\	-tor	8g\L	-tor	8b\L	-tor	.	.	.	.	8g/	8b\
8F#\	.	8a/J	8cc\J	8F#\	-tor	.	.	8a\J	.	8cc\J	.	.	.	.	.	8a/J	8cc\J
!LO:LB:g=original	!	!	!	!	!	!LO:LB:g=original	!	!	!	!	!	!	!	!	!	!	!
=40	=40	=40	=40	=40	=40	=40	=40	=40	=40	=40	=40	=40	=40	=40	=40	=40	=40
.	.	.	8qqcc/	.	.	.	.	.	.	.	.	.	.	.	.	.	.
!LO:TX:t=P::problem=zwinięta strona&colon; pewnie 9&colon8 4&colon3	!	!	!	!	!	!	!	!	!	!	!	!	!	!	!	!	!
4G\	8 3	8a/L	4b\	8G\	ho-	8d\	ho-	8a\	ho-	8cc\	ho-	2ryy	8a\L	.	8cc\L	8a/L	8cc\L
.	.	8g/J	.	8G\	-mi-	8d\	-mi-	8g\	-mi-	8b\	-mi-	.	8g\J	.	8b\J	8g/J	8b\J
4GG/	.	4g/	4b\	8G\	-nis	8d\	-nis	8g\	-nis	8b\	-nis	.	4g\	.	4b\	4g/	4b\
.	.	.	.	8G\	A-	8d\	A-	8g\	A-	8b\	A-	.	.	.	.	.	.
!	!	!	!	!LO:LB:g=original	!	!	!	!	!	!	!	!	!	!	!	!	!
=41	=41	=41	=41	=41	=41	=41	=41	=41	=41	=41	=41	=41	=41	=41	=41	=41	=41
!	!	!	!	!	!	!	!	!	!	!	!	!	!	!	!LO:TX:a:t=2	!	!
4.G\	.	8b\L	8dd\L	4.G\	-ma-	4G/	-ma-	4b\	-ma-	4dd\	-ma-	2ryy	2r	.	2r	8b\L	8dd\L
.	.	8b\	8dd\	.	.	.	.	.	.	.	.	.	.	.	.	8b\	8dd\
.	.	8cc\	8ee\	.	.	4G/	-tor	8cc\L	-tor	8ee\L	-tor	.	.	.	.	8cc\	8ee\
8B\	.	8dd\J	8ffn\J	8B\	-tor	.	.	8dd\J	.	8ffn\J	.	.	.	.	.	8dd\J	8ffn\J
!	!	!	!	!	!	!	!	!	!	!LO:LB:g=original	!	!	!	!	!	!	!
=42	=42	=42	=42	=42	=42	=42	=42	=42	=42	=42	=42	=42	=42	=42	=42	=42	=42
!	!	!	!	!	!	!	!	!	!	!	!	!	!LO:TX:b:t=Solo.	!	!	!	!
4.c\	.	8cc\L	8ee\L	4.c\	ho-	4.G/	ho-	4cc\	ho-	4ee\	ho-	2ryy	2r	.	2r	8cc\L	8ee\L
.	.	8cc\	8ee\	.	.	.	.	.	.	.	.	.	.	.	.	8cc\	8ee\
.	.	8b\	8dd\	.	.	.	.	8b\L	.	8dd\L	.	.	.	.	.	8b\	8dd\
8e\	.	8a\J	8cc\J	8e\	.	8A/	.	8a\J	.	8cc\J	.	.	.	.	.	8a\J	8cc\J
=43	=43	=43	=43	=43	=43	=43	=43	=43	=43	=43	=43	=43	=43	=43	=43	=43	=43
4d\	.	4g/	4b/	4d\	.	4d\	.	4g\	.	4b\	.	2ryy	4g\	.	4b\	4g/	4b\
4D\	.	4f#/	4a/	4D/	-mi-	4d\	-mi-	4f#\	-mi-	4a\	-mi-	.	4d/	.	4a\	4f#/	4a\
=44	=44	=44	=44	=44	=44	=44	=44	=44	=44	=44	=44	=44	=44	=44	=44	=44	=44
!LO:TX:t=P:problem=mixed beam	!	!	!	!	!	!	!	!	!	!	!	!	!	!	!	!	!
8G\L	.	4B/ 4g	4g/	4G\	-nis.	4d\	-nis.	4g\	-nis.	4b\	-nis.	2ryy	4B/	.	4g\	4g/	4b\
8GG/J	.	.	.	.	.	.	.	.	.	.	.	.	.	.	.	.	.
4r	.	4r	4r	4r	.	4r	.	4r	.	4r	.	.	4r	.	4r	4r	4r
==	==	==	==	==	==	==	==	==	==	==	==	==	==	==	==	==	==
*-	*-	*-	*-	*-	*-	*-	*-	*-	*-	*-	*-	*-	*-	*-	*-	*-	*-
!!!RDF**kern: | = vertical stroke
!!!system-decoration: [(s1,s2)][(s3,s4)]s5[(s6,s7,s8,s9)][(s10,s11)]s12
!!!ENC: Kamil Watkowski
!!!END: 2020-09-10
!!!ENC: Urszula Świątek
!!!END: 2022-01-26
